icons/anticlockwise-2-fill.svg

<svg xmlns="http://www.w3.org/2000/svg" width="24" height="24" fill="none"><g clip-path="url(#a)"><g><path fill="#121212" d="M14 4H16C17.3261 4 18.5979 4.52678 19.5355 5.46447C20.4732 6.40215 21 7.67392 21 9V13H19V9C19 8.20435 18.6839 7.44129 18.1213 6.87868C17.5587 6.31607 16.7956 6 16 6H14V9L9 5L14 1V4ZM15 11V21C15 21.2652 14.8946 21.5196 14.7071 21.7071C14.5196 21.8946 14.2652 22 14 22H4C3.73478 22 3.48043 21.8946 3.29289 21.7071C3.10536 21.5196 3 21.2652 3 21V11C3 10.7348 3.10536 10.4804 3.29289 10.2929C3.48043 10.1054 3.73478 10 4 10H14C14.2652 10 14.5196 10.1054 14.7071 10.2929C14.8946 10.4804 15 10.7348 15 11Z"/></g></g><defs><clipPath id="a"><rect width="24" height="24" fill="white"/></clipPath></defs></svg>

<svg width="24" height="24" fill="none" xmlns="http://www.w3.org/2000/svg"><g clip-path="url(#a)"><path d="M14 4h2a5 5 0 0 1 5 5v4h-2V9a3 3 0 0 0-3-3h-2v3L9 5l5-4v3Zm1 7v10a1 1 0 0 1-1 1H4a1 1 0 0 1-1-1V11a1 1 0 0 1 1-1h10a1 1 0 0 1 1 1Z" /></g><defs><clipPath id="a"><path fill="#fff" d="M0 0h24v24H0z"/></clipPath></defs></svg>
